src/icons/scalable/status/adw-tab-icon-missing-symbolic.svg

<?xml version="1.0" encoding="UTF-8" standalone="no"?>
<svg
   xmlns:dc="http://purl.org/dc/elements/1.1/"
   xmlns:cc="http://creativecommons.org/ns#"
   xmlns:rdf="http://www.w3.org/1999/02/22-rdf-syntax-ns#"
   xmlns:svg="http://www.w3.org/2000/svg"
   xmlns="http://www.w3.org/2000/svg"
   height="16"
   id="svg7384"
   version="1.1"
   width="16">
  <metadata
     id="metadata90">
    <rdf:RDF>
      <cc:Work
         rdf:about="">
        <dc:format>image/svg+xml</dc:format>
        <dc:type
           rdf:resource="http://purl.org/dc/dcmitype/StillImage" />
        <dc:title>Gnome Symbolic Icon Theme</dc:title>
      </cc:Work>
    </rdf:RDF>
  </metadata>
  <title
     id="title9167">Gnome Symbolic Icon Theme</title>
  <defs
     id="defs7386" />
  <path
     style="color:#bebebe;font-style:normal;font-variant:normal;font-weight:normal;font-stretch:normal;font-size:medium;line-height:normal;font-family:sans-serif;font-variant-ligatures:normal;font-variant-position:normal;font-variant-caps:normal;font-variant-numeric:normal;font-variant-alternates:normal;font-feature-settings:normal;text-indent:0;text-align:start;text-decoration:none;text-decoration-line:none;text-decoration-style:solid;text-decoration-color:#000000;letter-spacing:normal;word-spacing:normal;text-transform:none;writing-mode:lr-tb;direction:ltr;text-orientation:mixed;dominant-baseline:auto;baseline-shift:baseline;text-anchor:start;white-space:normal;shape-padding:0;clip-rule:nonzero;display:inline;overflow:visible;visibility:visible;opacity:1;isolation:auto;mix-blend-mode:normal;color-interpolation:sRGB;color-interpolation-filters:linearRGB;solid-color:#000000;solid-opacity:1;vector-effect:none;fill:#241f31;fill-opacity:1;fill-rule:nonzero;stroke:none;stroke-width:2;stroke-linecap:butt;stroke-linejoin:miter;stroke-miterlimit:4;stroke-dasharray:none;stroke-dashoffset:0;stroke-opacity:1;marker:none;color-rendering:auto;image-rendering:auto;shape-rendering:auto;text-rendering:auto;enable-background:accumulate"
     d="M 2.1992188 0 C 0.94446875 0 -2.9605947e-16 1.0997689 0 2.3183594 L 0 4 L 2 4 L 2 2.3183594 C 2 2.0752625 2.1256288 2 2.1992188 2 L 4 2 L 4 0 L 2.1992188 0 z M 6 0 L 6 2 L 10 2 L 10 0 L 6 0 z M 12 0 L 12 2 L 13.800781 2 C 13.874371 2 14 2.0752716 14 2.3183594 L 14 4 L 16 4 L 16 2.3183594 C 16 1.0997598 15.055531 -2.9605947e-16 13.800781 0 L 12 0 z M 0 6 L 0 10 L 2 10 L 2 6 L 0 6 z M 14 6 L 14 10 L 16 10 L 16 6 L 14 6 z M 0 12 L 0 13.681641 C 0 14.900231 0.94447875 16 2.1992188 16 L 4 16 L 4 14 L 2.1992188 14 C 2.1256188 14 2 13.924738 2 13.681641 L 2 12 L 0 12 z M 14 12 L 14 13.681641 C 14 13.924729 13.874381 14 13.800781 14 L 12 14 L 12 16 L 13.800781 16 C 15.055521 16 16 14.90024 16 13.681641 L 16 12 L 14 12 z M 6 14 L 6 16 L 10 16 L 10 14 L 6 14 z "
     id="path983" />
</svg>

<svg width="16" height="16" xmlns="http://www.w3.org/2000/svg"><path style="fill:#2e3436;fill-opacity:1" d="M3.006 0c-1.645 0-3 1.355-3 3v1h2V3c0-.571.429-1 1-1H4V0h-.994zM6 0v2h4V0H6zm6 0v2h1.006c.57 0 1 .429 1 1v1h2V3c0-1.645-1.355-3-3-3H12zM.006 6v4h2V6h-2zm14 0v4h2V6h-2zm-14 6v1c0 1.645 1.355 3 3 3H4v-2h-.994c-.571 0-1-.429-1-1v-1h-2zm14 0v1c0 .571-.43 1-1 1H12v2h1.006c1.645 0 3-1.355 3-3v-1h-2zM6 14v2h4v-2H6z"/></svg>
